X: 1
T: Memories of Paddy LeBlanc
C: Donald Angus Beaton
%D:
R: march, strathspey
S: Fiddle Hell Online 2022-4-7 handout for Andrea Beaton workshop
Z: 2022 John Chambers <jc:trillian.mit.edu>
M: 4/4
L: 1/8
K: Amix
e>d |:\
c>BA<c e>Ac<e | d<gf<a e>Ac<e |\
[1,3 c>BA>c e<A g2 | B<dG>B g>dB<d :|\
[2,4 c>BA<f e>cd<B | A4 A2 :|
|: f<g |:\
a>gf<a e>Ac<e | d<gf<a e>Ac<e |\
[1,3 g>fe<g d<G B2 | g>fe<g d<GB<g :|\
[2,4 c>BA<f e>cd<B | A4 A2 :|
